res/skins/LateNight/buttons/btn_settings_on.svg

<?xml version="1.0" encoding="UTF-8" standalone="no"?>
<!-- Created with Inkscape (http://www.inkscape.org/) -->

<svg
   xmlns:dc="http://purl.org/dc/elements/1.1/"
   xmlns:cc="http://creativecommons.org/ns#"
   xmlns:rdf="http://www.w3.org/1999/02/22-rdf-syntax-ns#"
   xmlns:svg="http://www.w3.org/2000/svg"
   xmlns="http://www.w3.org/2000/svg"
   xmlns:sodipodi="http://sodipodi.sourceforge.net/DTD/sodipodi-0.dtd"
   xmlns:inkscape="http://www.inkscape.org/namespaces/inkscape"
   version="1.1"
   width="73"
   height="17"
   id="svg2"
   sodipodi:docname="btn_settings_on.svg"
   inkscape:version="0.92.3 (unknown)">
  <sodipodi:namedview
     pagecolor="#ffffff"
     bordercolor="#666666"
     borderopacity="1"
     objecttolerance="10"
     gridtolerance="10"
     guidetolerance="10"
     inkscape:pageopacity="0"
     inkscape:pageshadow="2"
     inkscape:window-width="1366"
     inkscape:window-height="740"
     id="namedview20"
     showgrid="true"
     inkscape:snap-bbox="true"
     inkscape:snap-bbox-edge-midpoints="true"
     inkscape:bbox-paths="true"
     inkscape:snap-smooth-nodes="true"
     inkscape:snap-global="true"
     inkscape:zoom="4.9166667"
     inkscape:cx="60.870855"
     inkscape:cy="35.310991"
     inkscape:window-x="0"
     inkscape:window-y="0"
     inkscape:window-maximized="1"
     inkscape:current-layer="svg2" />
  <metadata
     id="metadata14">
    <rdf:RDF>
      <cc:Work
         rdf:about="">
        <dc:format>image/svg+xml</dc:format>
        <dc:type
           rdf:resource="http://purl.org/dc/dcmitype/StillImage" />
        <dc:title></dc:title>
      </cc:Work>
    </rdf:RDF>
  </metadata>
  <defs
     id="defs12" />
  <g
     transform="matrix(0,0.88132606,-1,0,49,-11.813261)"
     id="g4021-3"
     style="fill:#d2d2d2;fill-opacity:1" />
  <g
     transform="matrix(0.62319163,0.62319163,-0.70710678,0.70710678,39.839151,-16.302984)"
     id="g4021-0"
     style="fill:#d2d2d2;fill-opacity:1" />
  <g
     transform="matrix(-0.62319163,0.62319163,-0.70710678,-0.70710678,52.302984,-2.160849)"
     id="g4021-3-6"
     style="fill:#d2d2d2;fill-opacity:1" />
  <g
     transform="matrix(-0.88132606,0,0,-1,47.813261,7)"
     id="g4021-8"
     style="fill:#d2d2d2;fill-opacity:1" />
  <g
     transform="matrix(0,-0.88132606,1,0,29,5.813261)"
     id="g4021-3-9"
     style="fill:#d2d2d2;fill-opacity:1" />
  <g
     transform="matrix(-0.62319163,-0.62319163,0.70710678,-0.70710678,38.160849,10.302984)"
     id="g4021-0-0"
     style="fill:#d2d2d2;fill-opacity:1" />
  <g
     transform="matrix(0.62319163,-0.62319163,0.70710678,0.70710678,25.697016,-3.839151)"
     id="g4021-3-6-3"
     style="fill:#d2d2d2;fill-opacity:1" />
  <g
     transform="matrix(-0.68547588,0,0,0.77777784,15.854758,0.2222216)"
     id="g4021"
     style="fill:#0e0e0e;fill-opacity:1">
    <path
       d="m 37.625,-5 -0.1875,2.625 c -0.660189,0.1643495 -1.276506,0.433133 -1.84375,0.78125 l -1.96875,-1.75 -1.96875,1.96875 1.75,1.96875 C 33.062425,1.1568921 32.787338,1.7815016 32.625,2.4375 L 30,2.625 v 2.75 l 2.625,0.1875 c 0.163854,0.662125 0.430997,1.2793462 0.78125,1.84375 l -1.75,1.96875 1.96875,1.96875 2,-1.75 c 0.558506,0.3359883 1.16437,0.588624 1.8125,0.75 L 37.625,13 h 2.75 l 0.1875,-2.625 c 0.660189,-0.16435 1.276506,-0.4331332 1.84375,-0.78125 l 1.96875,1.75 1.96875,-1.96875 -1.75,-1.96875 C 44.937575,6.8431079 45.212662,6.2184985 45.375,5.5625 L 48,5.375 V 2.625 L 45.375,2.4375 C 45.21065,1.7773111 44.941867,1.160994 44.59375,0.59375 l 1.75,-1.96875 -1.96875,-1.96875 -1.96875,1.75 C 41.843108,-1.937575 41.218498,-2.2126623 40.5625,-2.375 L 40.375,-5 Z M 39,1 c 1.650472,0 3,1.3495281 3,3 0,1.650472 -1.349528,3 -3,3 -1.650472,0 -3,-1.349528 -3,-3 0,-1.6504719 1.349528,-3 3,-3 z"
       transform="matrix(1.1346538,0,0,1,-34.251499,6)"
       id="rect3922"
       style="color:#000000;display:inline;overflow:visible;visibility:visible;fill:#0e0e0e;fill-opacity:1;fill-rule:nonzero;stroke:none;stroke-width:2;marker:none;enable-background:accumulate"
       inkscape:connector-curvature="0" />
  </g>
</svg>

<?xml version="1.0" encoding="UTF-8"?>
<!-- Created with Inkscape (http://www.inkscape.org/) -->
<svg id="svg2" width="73" height="17" version="1.1" xmlns="http://www.w3.org/2000/svg" xmlns:cc="http://creativecommons.org/ns#" xmlns:dc="http://purl.org/dc/elements/1.1/" xmlns:rdf="http://www.w3.org/1999/02/22-rdf-syntax-ns#">
 <metadata id="metadata14">
  <rdf:RDF>
   <cc:Work rdf:about="">
    <dc:format>image/svg+xml</dc:format>
    <dc:type rdf:resource="http://purl.org/dc/dcmitype/StillImage"/>
    <dc:title/>
   </cc:Work>
  </rdf:RDF>
 </metadata>
 <g id="g4021" transform="matrix(-.68548 0 0 .77778 15.855 .22222)" fill="#0e0e0e">
  <path id="rect3922" transform="matrix(1.1347 0 0 1 -34.251 6)" d="m37.625-5-0.1875 2.625c-0.66019 0.16435-1.2765 0.43313-1.8438 0.78125l-1.9688-1.75-1.9688 1.9688 1.75 1.9688c-0.34382 0.56314-0.61891 1.1878-0.78125 1.8438l-2.625 0.1875v2.75l2.625 0.1875c0.16385 0.66212 0.431 1.2793 0.78125 1.8438l-1.75 1.9688 1.9688 1.9688 2-1.75c0.55851 0.33599 1.1644 0.58862 1.8125 0.75l0.1875 2.6562h2.75l0.1875-2.625c0.66019-0.16435 1.2765-0.43313 1.8438-0.78125l1.9688 1.75 1.9688-1.9688-1.75-1.9688c0.34382-0.56314 0.61891-1.1878 0.78125-1.8438l2.625-0.1875v-2.75l-2.625-0.1875c-0.16435-0.66019-0.43313-1.2765-0.78125-1.8438l1.75-1.9688-1.9688-1.9688-1.9688 1.75c-0.56314-0.34382-1.1878-0.61891-1.8438-0.78125l-0.1875-2.625zm1.375 6c1.6505 0 3 1.3495 3 3 0 1.6505-1.3495 3-3 3s-3-1.3495-3-3c0-1.6505 1.3495-3 3-3z" color="#000000" fill="#0e0e0e"/>
 </g>
</svg>
